icons/unread-16.svg

<svg width="16" height="16" viewBox="0 0 16 16" fill="none" xmlns="http://www.w3.org/2000/svg">
<g clip-path="url(#clip0_8547_104422)">
<path d="M10.5 3.5L1.75 3.5C1.61193 3.5 1.5 3.61193 1.5 3.75V4.07029L8 7.88063L11.0191 6.11079C11.3765 5.90131 11.836 6.02118 12.0455 6.37852C12.2549 6.73586 12.1351 7.19536 11.7777 7.40483L8.37929 9.39702C8.14507 9.53432 7.85493 9.53432 7.62071 9.39702L1.5 5.80902V12.25C1.5 12.3881 1.61193 12.5 1.75 12.5H14.25C14.3881 12.5 14.5 12.3881 14.5 12.25V7.75C14.5 7.33579 14.8358 7 15.25 7C15.6642 7 16 7.33579 16 7.75V12.25C16 13.2165 15.2165 14 14.25 14H1.75C0.7835 14 4.35102e-09 13.2165 4.35102e-09 12.25V4.51282C-0.000162567 4.50381 -0.000162957 4.49479 4.35102e-09 4.48577V3.75C4.35102e-09 2.7835 0.783502 2 1.75 2H10.5C10.9142 2 11.25 2.33579 11.25 2.75C11.25 3.16421 10.9142 3.5 10.5 3.5Z" fill="#24292F"/>
<path d="M14 6C15.1046 6 16 5.10457 16 4C16 2.89543 15.1046 2 14 2C12.8954 2 12 2.89543 12 4C12 5.10457 12.8954 6 14 6Z" fill="#24292F"/>
</g>
<defs>
<clipPath id="clip0_8547_104422">
<rect width="16" height="16" fill="white"/>
</clipPath>
</defs>
</svg>

<svg xmlns="http://www.w3.org/2000/svg" width="16" height="16" viewBox="0 0 16 16"><path d="M10.5 3.5H1.75a.25.25 0 00-.25.25v.32L8 7.88l3.02-1.77a.75.75 0 01.758 1.295L8.379 9.397a.75.75 0 01-.758 0L1.5 5.809v6.441c0 .138.112.25.25.25h12.5a.25.25 0 00.25-.25v-4.5a.75.75 0 011.5 0v4.5A1.75 1.75 0 0114.25 14H1.75A1.75 1.75 0 010 12.25V4.513a.75.75 0 010-.027V3.75C0 2.784.784 2 1.75 2h8.75a.75.75 0 010 1.5z"/><path d="M14 6a2 2 0 100-4 2 2 0 000 4z"/></svg>
